X:1
T:Le Petit Chien
C:Andy Cutting
L:1/8
M:2/2
K:Bm
B2 Bc BAFA | B2 AB dcBA | e2 e2 dcBA | de c4 dc |
B2 Bc BAFA | B2 AB dcBA | e2 e2 dcBA |1 d(e c4) dc :|2 de c4 de |
K:Em
 | B2 B2 AGFE | A2 GA BGEF | G2 FE A2 GF | EFGA FDGA |
  B2 B2 AGFE | A2 GA BGEF | G2 FE FGAB |1 F2 E3 FGA :|2 GFED B,FGF |] 

